Newaita-dark/actions/24/kt-remove-filters.svg

<?xml version="1.0" encoding="UTF-8"?>
<svg xmlns="http://www.w3.org/2000/svg" xmlns:xlink="http://www.w3.org/1999/xlink" width="24pt" height="24pt" viewBox="0 0 24 24" version="1.1">
<g id="surface1">
<path style=" stroke:none;fill-rule:evenodd;fill:rgb(74.117649%,74.117649%,74.117649%);fill-opacity:1;" d="M 2.976562 1.179688 L 20.839844 1.179688 L 12.898438 12.09375 L 12.898438 21.027344 L 10.914062 23.011719 L 10.914062 12.09375 Z M 2.976562 1.179688 "/>
<path style=" stroke:none;fill-rule:nonzero;fill:rgb(93.725491%,32.549021%,31.37255%);fill-opacity:1;" d="M 15.628906 16.558594 L 22.078125 16.558594 C 22.488281 16.558594 22.824219 16.863281 22.824219 17.242188 L 22.824219 17.367188 C 22.824219 17.742188 22.488281 18.046875 22.078125 18.046875 L 15.628906 18.046875 C 15.21875 18.046875 14.882812 17.742188 14.882812 17.367188 L 14.882812 17.242188 C 14.882812 16.863281 15.21875 16.558594 15.628906 16.558594 Z M 15.628906 16.558594 "/>
</g>
</svg>

<svg xmlns="http://www.w3.org/2000/svg" width="32" height="32" viewBox="0 0 24 24"><path d="M2.977 1.18H20.84l-7.942 10.914v8.933l-1.984 1.985V12.094zm0 0" fill-rule="evenodd" fill="#bdbdbd"/><path d="M15.629 16.559h6.45c.41 0 .745.304.745.683v.125c0 .375-.336.68-.746.68h-6.45c-.41 0-.745-.305-.745-.68v-.125c0-.379.336-.683.746-.683zm0 0" fill="#ef5350"/></svg>
